style-guide/assets/wds-icons-checkbox-small.svg

<svg xmlns="http://www.w3.org/2000/svg" xmlns:xlink="http://www.w3.org/1999/xlink" viewBox="0 0 18 18">
  <defs>
    <path id="check-box-a" d="M3 15h12V3H3v12zM16 1H2a1 1 0 0 0-1 1v14a1 1 0 0 0 1 1h14a1 1 0 0 0 1-1V2a1 1 0 0 0-1-1zM7.293 11.707a.997.997 0 0 0 1.414 0l4-4a.999.999 0 1 0-1.414-1.414L8 9.586 6.707 8.293a.999.999 0 1 0-1.414 1.414l2 2z"/>
  </defs>
  <use fill-rule="evenodd" xlink:href="#check-box-a"/>
</svg>

<svg xmlns="http://www.w3.org/2000/svg" xmlns:xlink="http://www.w3.org/1999/xlink" width="18" height="18" viewBox="0 0 18 18">
  <defs>
    <path id="check-box-a" d="M3,15 L15,15 L15,3 L3,3 L3,15 Z M16,1 L2,1 C1.448,1 1,1.447 1,2 L1,16 C1,16.553 1.448,17 2,17 L16,17 C16.552,17 17,16.553 17,16 L17,2 C17,1.447 16.552,1 16,1 Z M7.293,11.707 C7.488,11.902 7.744,12 8,12 C8.256,12 8.512,11.902 8.707,11.707 L12.707,7.707 C13.098,7.316 13.098,6.684 12.707,6.293 C12.316,5.902 11.684,5.902 11.293,6.293 L8,9.586 L6.707,8.293 C6.316,7.902 5.684,7.902 5.293,8.293 C4.902,8.684 4.902,9.316 5.293,9.707 L7.293,11.707 Z"/>
  </defs>
  <use fill-rule="evenodd" xlink:href="#check-box-a"/>
</svg>
